other/karta_krakowska.svg

<svg xmlns="http://www.w3.org/2000/svg" viewBox="0 0 48 48"><defs><style>.a{fill:none;stroke:#fff;stroke-linecap:round;stroke-linejoin:round;}</style></defs>
  <rect class="a"
     width="28.312353"
     height="34.976067"
     x="9.4419727"
     y="5.6107645"
     ry="3.4708405" />
    <path
       d="M18.26830275 26.5423627C18.26830275 26.5423627 18.26830275 20.4239571 18.26830275 20.4239571C18.26830275 20.4239571 20.25678457 20.4239571 20.25678457 20.4239571C21.40398562 20.4239571 22.32174646 21.34171794 22.32174646 22.48891899C22.32174646 23.63612004 21.40398562 24.55388088 20.25678457 24.55388088C20.25678457 24.55388088 18.26830275 24.55388088 18.26830275 24.55388088"
       class="a" />
      <path class="a"
         d="M20.33326464 24.4774031044C20.33326464 24.4774031044 22.32174646 26.5423627 22.32174646 26.5423627"
         />
  <path class="a"
     d="M12.979661 20.423957C12.979661 20.423957 12.979661 26.542363 12.979661 26.542363"
     />
  <path
     d="M16.268304 26.542363C16.268304 26.542363 13.744462 23.48316 13.744462 23.48316C13.744462 23.48316 16.268304 20.423957 16.268304 20.423957"
     class="a" />
  <path
     d="M13.744462 23.48316C13.744462 23.48316 12.979661 23.48316 12.979661 23.48316"
     class="a" />
  <path
     d="M28.37519366 26.5423627C28.37519366 26.5423627 26.38671184 20.4239571 26.38671184 20.4239571C26.38671184 20.4239571 24.32174995 26.5423627 24.32174995 26.5423627"
     class="a" />
  <path class="a"
     d="m 25.010071,24.477404 h 2.676803"
     />
    <path class="a"
       d="M37.1208083754 27.6175629536C37.1208083754 27.6175629536 35.5912069754 33.7359685536 35.5912069754 33.7359685536C35.5912069754 33.7359685536 34.0616055754 27.6175629536 34.0616055754 27.6175629536C34.0616055754 27.6175629536 32.5320041754 33.7359685536 32.5320041754 33.7359685536C32.5320041754 33.7359685536 31.0024027754 27.6175629536 31.0024027754 27.6175629536"
    />
  <path
     d="M17.01275 39.804513C17.39515 40.263393 17.854031 40.492834 18.542351 40.492834C18.542351 40.492834 19.460112 40.492834 19.460112 40.492834C20.301393 40.492834 20.989714 39.804513 20.989714 38.963232C20.989714 38.963232 20.989714 38.963232 20.989714 38.963232C20.989714 38.121952 20.301393 37.433631 19.460112 37.433631C19.460112 37.433631 18.465871 37.433631 18.465871 37.433631C17.62459 37.433631 16.93627 36.74531 16.93627 35.904029C16.93627 35.904029 16.93627 35.904029 16.93627 35.904029C16.93627 35.062749 17.62459 34.374428 18.465871 34.374428C18.465871 34.374428 19.383632 34.374428 19.383632 34.374428C20.071953 34.374428 20.530833 34.527388 20.913233 35.062749"
     class="a" />
  <path
     d="M25.996352 31.472341C25.996352 32.619542 26.914112 33.537303 27.984833 33.537303C29.132035 33.537303 30.049795 32.619542 30.049795 31.472341C30.049795 31.472341 30.049795 29.40738 30.049795 29.40738C30.049795 28.260179 29.132035 27.342418 27.984833 27.342418C26.837632 27.342418 25.996352 28.260179 25.996352 29.40738C25.996352 29.40738 25.996352 31.472341 25.996352 31.472341"
     class="a" />
  <path class="a"
     d="M21.340311 27.617563C21.340311 27.617563 21.340311 33.73597 21.340311 33.73597"
     />
  <path class="a"
     d="M24.62895431 33.7359687C24.62895431 33.7359687 22.105112 30.6767659 22.105112 30.6767659C22.105112 30.6767659 24.62895431 27.6175631 24.62895431 27.6175631"
     />
  <path class="a"
     d="M22.105112 30.676765C22.105112 30.676765 21.340311 30.676765 21.340311 30.676765"
     />
  <path class="a"
     d="M22.77906 34.188797C22.77906 34.188797 22.77906 40.307201 22.77906 40.307201"
     />
    <path class="a"
     d="M26.06770431 40.3072027C26.06770431 40.3072027 23.543862 37.2479999 23.543862 37.2479999C23.543862 37.2479999 26.06770431 34.1887971 26.06770431 34.1887971"
     />
  <path class="a"
     d="M23.543861 37.248001C23.543861 37.248001 22.77906 37.248001 22.77906 37.248001"
     />
  <path
     d="M31.67475066 40.1509707C31.67475066 40.1509707 29.68626884 34.0325651 29.68626884 34.0325651C29.68626884 34.0325651 27.62130695 40.1509707 27.62130695 40.1509707"
     class="a" />
  <path
     d="M28.309629 38.08601C28.309629 38.08601 30.986431 38.08601 30.986431 38.08601"
     class="a" />
  <path class="a"
     d="m 12.593975,19.737787 24.42485,0.153226 v 0"
     />
  <path class="a"
     d="m 12.824375,27.033787 24.42485,0.153226 v 0"
     />
  <path class="a"
     d="m 12.670775,34.099387 24.42485,0.153226 v 0"
     />
</svg>

<svg xmlns="http://www.w3.org/2000/svg" viewBox="0 0 48 48"><defs><style>.a{fill:none;stroke:#fff;stroke-linecap:round;stroke-linejoin:round}</style></defs><rect class="a" width="28.312" height="34.976" x="9.442" y="5.611" ry="3.471"/><path d="M18.268 26.542v-6.118h1.989c1.147 0 2.065.918 2.065 2.065a2.056 2.056 0 0 1-2.065 2.065h-1.989M20.333 24.477l1.989 2.065M12.98 20.424v6.118M16.268 26.542l-2.524-3.059 2.524-3.059M13.744 23.483h-.764M28.375 26.542l-1.988-6.118-2.065 6.118M25.01 24.477h2.677M37.12 27.618l-1.529 6.118-1.53-6.118-1.529 6.118-1.53-6.118M17.013 39.805c.382.458.841.688 1.53.688h.917c.841 0 1.53-.688 1.53-1.53 0 0 0 0 0 0 0-.841-.689-1.53-1.53-1.53h-.994c-.841 0-1.53-.688-1.53-1.529 0 0 0 0 0 0 0-.841.689-1.53 1.53-1.53h.918c.688 0 1.147.153 1.53.689M25.996 31.472c0 1.148.918 2.065 1.989 2.065a2.056 2.056 0 0 0 2.065-2.065v-2.065a2.056 2.056 0 0 0-2.065-2.065c-1.147 0-1.989.918-1.989 2.065v2.065M21.34 27.618v6.118M24.629 33.736l-2.524-3.06 2.524-3.058M22.105 30.677h-.765M22.78 34.189v6.118M26.068 40.307l-2.524-3.059 2.524-3.06M23.544 37.248h-.765M31.675 40.151l-1.989-6.118-2.065 6.118M28.31 38.086h2.676M12.594 19.738l24.425.153v0M12.824 27.034l24.425.153v0M12.67 34.1l24.426.153v0" class="a"/></svg>
